X:106
T:John Egan's
S:Learned from Tom McCann at Paddy Rooney's & Jack McShea's sessions.
R: polka
M: 2/4
L: 1/8
K: Dmaj
AF A2 | BG B2 | Ad fd | ed B/c/d/B/ |
AF A2 | BG B2 | Ad fd | ed d2 :|
|: Ad f3/g/ | fe e2 | ef ga | ba fd |
Ad f3/g/ | fe e2 | ef gc | ed d2 :|

%%newpage
%%scale .7
%%staffsep 35

